Papirus/64x64/apps/borderlands-the-pre-sequel.svg

<?xml version="1.0" encoding="UTF-8" standalone="no"?>
<svg
   id="_图层_1"
   version="1.1"
   viewBox="0 0 64 64" width="64" height="64"
   sodipodi:docname="borderlands-the-pre-sequel.svg"
   xml:space="preserve"
   inkscape:version="1.4 (e7c3feb100, 2024-10-09)"
   xmlns:inkscape="http://www.inkscape.org/namespaces/inkscape"
   xmlns:sodipodi="http://sodipodi.sourceforge.net/DTD/sodipodi-0.dtd"
   xmlns="http://www.w3.org/2000/svg"
   xmlns:svg="http://www.w3.org/2000/svg"><sodipodi:namedview
     id="namedview26"
     pagecolor="#505050"
     bordercolor="#eeeeee"
     borderopacity="1"
     inkscape:showpageshadow="0"
     inkscape:pageopacity="0"
     inkscape:pagecheckerboard="0"
     inkscape:deskcolor="#505050"
     inkscape:zoom="10.6875"
     inkscape:cx="32"
     inkscape:cy="28.912281"
     inkscape:window-width="1920"
     inkscape:window-height="939"
     inkscape:window-x="0"
     inkscape:window-y="34"
     inkscape:window-maximized="1"
     inkscape:current-layer="_图层_1" /><!-- Generator: Adobe Illustrator 29.0.1, SVG Export Plug-In . SVG Version: 2.1.0 Build 192)  --><defs
     id="defs6"><style
       id="style1">
      .st0 {
        fill-opacity: .5;
      }

      .st0, .st1, .st2, .st3, .st4, .st5, .st6, .st7 {
        fill: #fff;
      }

      .st8 {
        fill: #133c9a;
      }

      .st2, .st9 {
        display: none;
      }

      .st3 {
        fill-opacity: .2;
      }

      .st4 {
        fill-opacity: .9;
      }

      .st10 {
        fill: #3370ff;
      }

      .st11 {
        fill: url(#_未命名的渐变_3);
      }

      .st12 {
        fill: url(#_未命名的渐变);
      }

      .st5 {
        fill-opacity: .3;
      }

      .st6 {
        fill-opacity: 0;
      }

      .st7 {
        fill-opacity: .7;
      }

      .st13 {
        fill: #00d6b9;
      }

      .st14 {
        fill: url(#_未命名的渐变_2);
      }
    </style><radialGradient
       id="_未命名的渐变"
       data-name="未命名的渐变"
       cx="123.9"
       cy="-40.2"
       fx="123.9"
       fy="-40.2"
       r="59.4"
       gradientTransform="translate(-26.8 25.5) scale(.6 -.7)"
       gradientUnits="userSpaceOnUse"><stop
         offset="0"
         stop-color="#db202e"
         id="stop1" /><stop
         offset="1"
         stop-color="#e01b24"
         id="stop2" /></radialGradient><radialGradient
       id="_未命名的渐变_2"
       data-name="未命名的渐变 2"
       cx="67.6"
       cy="26.8"
       fx="67.6"
       fy="26.8"
       r="105.2"
       gradientTransform="translate(-26.6 25.3) scale(.6 -.7)"
       gradientUnits="userSpaceOnUse"><stop
         offset="0"
         stop-color="#ffb648"
         id="stop3" /><stop
         offset="1"
         stop-color="#ff7800"
         stop-opacity="0"
         id="stop4" /></radialGradient><radialGradient
       id="_未命名的渐变_3"
       data-name="未命名的渐变 3"
       cx="61.7"
       cy="18.6"
       fx="61.7"
       fy="18.6"
       r="68"
       gradientTransform="translate(-26.8 25.8) scale(.6 -.7)"
       gradientUnits="userSpaceOnUse"><stop
         offset="0"
         stop-color="#c64600"
         id="stop5" /><stop
         offset="1"
         stop-color="#a51d2d"
         id="stop6" /></radialGradient><style
       id="style1-2">
      .st0, .st1, .st2, .st3, .st4, .st5 {
        isolation: isolate;
      }

      .st0, .st1, .st6, .st7, .st5, .st8 {
        display: none;
      }

      .st0, .st3, .st4, .st5 {
        opacity: .2;
      }

      .st1 {
        opacity: .1;
      }

      .st1, .st9, .st2, .st4, .st5 {
        fill: #fff;
      }

      .st10 {
        fill: #3f3f3f;
      }

      .st2 {
        opacity: .3;
      }

      .st6 {
        fill: #505d6e;
      }

      .st11, .st8 {
        fill: #ffcca3;
      }

      .st12 {
        fill: #fed24c;
      }

      .st13 {
        fill: #c2352a;
      }
    </style></defs><path
     class="st1"
     d="M 47.5,64.1 H 13.8 C 6.2,64.1 0,57.8 0,50.3 V 13.7 C 0,6.2 6.2,0 13.7,0 H 50.3 C 57.8,0 64,6.2 64,13.7 V 50.3 C 64,57.8 57.8,64 50.3,64 h -2.9 0.1 z"
     id="path6"
     style="display:inline;opacity:1;fill:#5f89c9;fill-opacity:1" /><g
     id="g27"
     transform="matrix(1.1403509,0,0,1.1378886,-4.3976608,-4.4726069)"><circle
       style="fill:#5f89c9"
       cx="32"
       cy="32"
       r="28"
       id="circle2" /><path
       style="opacity:0.2"
       d="m 27.436,11.484 c 2.322,-0.498 4.749,-0.614 7.119,-0.337 3.44,0.402 6.771,1.63 9.662,3.562 2.858,1.909 5.205,4.426 6.896,7.393 0.648,1.136 1.2,2.349 1.642,3.606 0.308,0.88 0.589,1.898 0.782,2.823 1.004,4.823 0.366,9.796 -1.823,14.217 l -0.177,0.32 c 0,0 -18.565,-26.444 -18.658,-26.583 -0.577,-0.862 -1.166,-1.496 -1.83,-1.965 -0.159,-0.112 -0.549,-0.335 -0.722,-0.413 -0.799,-0.357 -1.644,-0.463 -2.592,-0.319 -0.659,0.098 -0.856,0.157 -1.436,0.385 -0.892,0.349 -1.574,0.863 -2.087,1.572 -0.111,0.154 -0.337,0.542 -0.419,0.719 -0.34,0.738 -0.534,1.581 -0.601,2.616 L 20.178,51.516 19.99,51.419 c -1.059,-0.681 -2.119,-1.507 -3.058,-2.382 -2.419,-2.255 -4.281,-5.029 -5.466,-8.143 -0.291,-0.767 -0.901,-2.978 -0.997,-3.407 -0.8797,-4.188 -0.5175,-8.515 1.049,-12.512 0.638,-1.628 1.49,-3.212 2.5,-4.645 2.735,-3.882 6.611,-6.752 11.107,-8.225 0.719,-0.235 1.564,-0.462 2.311,-0.621 z m 0.6,5.857 c 1.664,-0.173 2.73,1.003 3.639,2.24 4.307,7.456 8.898,15.532 13.557,23.845 1.34,2.39 2.653,4.742 2.657,4.76 0.004,0.015 -0.053,0.079 -0.282,0.31 -2.625,2.646 -5.873,4.572 -9.462,5.612 -0.82,0.236 -2.18,0.568 -3.628,0.741 -2.78,0.33 -5.569,0.119 -8.279,-0.627 L 26.037,54.158 25.783,23.633 c 0.147,-2.714 0.016,-5.541 2.253,-6.292 z"
       id="path3" /><path
       style="fill:#f7b400"
       d="m 27.436,10.484 c 2.322,-0.4979 4.749,-0.6142 7.119,-0.337 3.44,0.402 6.771,1.63 9.662,3.562 2.858,1.909 5.205,4.426 6.896,7.393 0.648,1.136 1.2,2.349 1.642,3.606 0.308,0.88 0.589,1.898 0.782,2.823 1.004,4.823 0.366,9.796 -1.823,14.217 l -0.177,0.32 c 0,0 -18.565,-26.444 -18.658,-26.583 -0.577,-0.862 -1.166,-1.496 -1.83,-1.965 -0.159,-0.112 -0.549,-0.335 -0.722,-0.413 -0.799,-0.357 -1.644,-0.463 -2.592,-0.319 -0.659,0.098 -0.856,0.157 -1.436,0.385 -0.892,0.349 -1.574,0.863 -2.087,1.572 -0.111,0.154 -0.337,0.542 -0.419,0.719 -0.34,0.738 -0.534,1.581 -0.601,2.616 L 20.178,50.516 19.99,50.419 c -1.059,-0.681 -2.119,-1.507 -3.058,-2.382 -2.419,-2.255 -4.281,-5.029 -5.466,-8.143 -0.291,-0.767 -0.901,-2.978 -0.997,-3.407 -0.8797,-4.188 -0.5175,-8.515 1.049,-12.512 0.638,-1.628 1.49,-3.212 2.5,-4.645 2.735,-3.882 6.611,-6.752 11.107,-8.225 0.719,-0.235 1.564,-0.462 2.311,-0.621 z m 0.6,5.857 c 1.664,-0.173 2.73,1.003 3.639,2.24 4.307,7.456 8.898,15.532 13.557,23.845 1.34,2.39 2.653,4.742 2.657,4.76 0.004,0.015 -0.053,0.079 -0.282,0.31 -2.625,2.646 -5.873,4.572 -9.462,5.612 -0.82,0.236 -2.18,0.568 -3.628,0.741 -2.78,0.33 -5.569,0.119 -8.279,-0.627 L 26.037,53.158 25.783,22.633 c 0.147,-2.714 0.016,-5.541 2.253,-6.292 z"
       id="path4" /><path
       style="opacity:0.2;fill:#ffffff"
       d="m 32.77,10.014 c -1.792,-0.0612 -3.593,0.097 -5.334,0.47 -0.747,0.159 -1.592,0.386 -2.311,0.621 -4.496,1.473 -8.372,4.343 -11.107,8.225 -1.01,1.433 -1.862,3.017 -2.5,4.645 -1.061,2.704 -1.555,5.562 -1.5,8.423 0.067,-2.525 0.563,-5.034 1.5,-7.423 0.638,-1.628 1.49,-3.212 2.5,-4.645 2.735,-3.882 6.611,-6.752 11.107,-8.225 0.719,-0.235 1.564,-0.462 2.311,-0.621 2.322,-0.498 4.749,-0.615 7.119,-0.338 3.44,0.402 6.771,1.631 9.662,3.563 2.858,1.909 5.205,4.426 6.896,7.393 0.648,1.136 1.201,2.348 1.643,3.605 0.308,0.88 0.588,1.899 0.781,2.824 0.249,1.194 0.395,2.397 0.443,3.598 0.009,-1.533 -0.125,-3.072 -0.443,-4.598 -0.193,-0.925 -0.473,-1.944 -0.781,-2.824 -0.442,-1.257 -0.995,-2.469 -1.643,-3.605 -1.691,-2.967 -4.038,-5.484 -6.896,-7.393 -2.891,-1.932 -6.222,-3.161 -9.662,-3.563 -0.593,-0.069 -1.188,-0.112 -1.785,-0.132 z m -4.137,6.322 c -0.19,-0.018 -0.39,-0.016 -0.598,0.006 -2.237,0.751 -2.105,3.577 -2.252,6.291 l 0.008,0.855 c 0.135,-2.668 0.047,-5.409 2.244,-6.146 1.664,-0.173 2.732,1.001 3.641,2.238 4.307,7.456 8.897,15.533 13.556,23.846 1.164,2.076 2.024,3.621 2.307,4.135 0.022,-0.023 0.046,-0.043 0.068,-0.065 0.229,-0.231 0.286,-0.295 0.282,-0.31 -0.004,-0.018 -1.317,-2.37 -2.657,-4.76 C 40.573,34.113 35.983,26.036 31.676,18.58 30.88,17.498 29.964,16.462 28.633,16.336 Z"
       id="path5" /></g></svg>

<svg xmlns="http://www.w3.org/2000/svg" width="64" height="64" version="1">
 <circle style="opacity:0.2" cx="32" cy="33" r="28"/>
 <circle style="fill:#5f89c9" cx="32" cy="32" r="28"/>
 <path style="opacity:0.2;fill:#ffffff" d="M 32 4 A 28 28 0 0 0 4 32 A 28 28 0 0 0 4.0215 32.586 A 28 28 0 0 1 32 5 A 28 28 0 0 1 59.979 32.414 A 28 28 0 0 0 60 32 A 28 28 0 0 0 32 4 z"/>
 <path style="opacity:0.2" d="M 27.436,11.484 C 29.758,10.986 32.185,10.87 34.555,11.147 37.995,11.549 41.326,12.777 44.217,14.709 47.075,16.618 49.422,19.135 51.113,22.102 51.761,23.238 52.313,24.451 52.755,25.708 53.063,26.588 53.344,27.606 53.537,28.531 54.541,33.354 53.903,38.327 51.714,42.748 L 51.537,43.068 C 51.537,43.068 32.972,16.624 32.879,16.485 32.302,15.623 31.713,14.989 31.049,14.52 30.89,14.408 30.5,14.185 30.327,14.107 29.528,13.75 28.683,13.644 27.735,13.788 27.076,13.886 26.879,13.945 26.299,14.173 25.407,14.522 24.725,15.036 24.212,15.745 24.101,15.899 23.875,16.287 23.793,16.464 23.453,17.202 23.259,18.045 23.192,19.08 L 20.178,51.516 19.99,51.419 C 18.931,50.738 17.871,49.912 16.932,49.037 14.513,46.782 12.651,44.008 11.466,40.894 11.175,40.127 10.565,37.916 10.469,37.487 9.5893,33.299 9.9515,28.972 11.518,24.975 12.156,23.347 13.008,21.763 14.018,20.33 16.753,16.448 20.629,13.578 25.125,12.105 25.844,11.87 26.689,11.643 27.436,11.484 Z M 28.036,17.341 C 29.7,17.168 30.766,18.344 31.675,19.581 35.982,27.037 40.573,35.113 45.232,43.426 46.572,45.816 47.885,48.168 47.889,48.186 47.893,48.201 47.836,48.265 47.607,48.496 44.982,51.142 41.734,53.068 38.145,54.108 37.325,54.344 35.965,54.676 34.517,54.849 31.737,55.179 28.948,54.968 26.238,54.222 L 26.037,54.158 25.783,23.633 C 25.93,20.919 25.799,18.092 28.036,17.341 Z"/>
 <path style="fill:#f7b400" d="M 27.436,10.484 C 29.758,9.9861 32.185,9.8698 34.555,10.147 37.995,10.549 41.326,11.777 44.217,13.709 47.075,15.618 49.422,18.135 51.113,21.102 51.761,22.238 52.313,23.451 52.755,24.708 53.063,25.588 53.344,26.606 53.537,27.531 54.541,32.354 53.903,37.327 51.714,41.748 L 51.537,42.068 C 51.537,42.068 32.972,15.624 32.879,15.485 32.302,14.623 31.713,13.989 31.049,13.52 30.89,13.408 30.5,13.185 30.327,13.107 29.528,12.75 28.683,12.644 27.735,12.788 27.076,12.886 26.879,12.945 26.299,13.173 25.407,13.522 24.725,14.036 24.212,14.745 24.101,14.899 23.875,15.287 23.793,15.464 23.453,16.202 23.259,17.045 23.192,18.08 L 20.178,50.516 19.99,50.419 C 18.931,49.738 17.871,48.912 16.932,48.037 14.513,45.782 12.651,43.008 11.466,39.894 11.175,39.127 10.565,36.916 10.469,36.487 9.5893,32.299 9.9515,27.972 11.518,23.975 12.156,22.347 13.008,20.763 14.018,19.33 16.753,15.448 20.629,12.578 25.125,11.105 25.844,10.87 26.689,10.643 27.436,10.484 Z M 28.036,16.341 C 29.7,16.168 30.766,17.344 31.675,18.581 35.982,26.037 40.573,34.113 45.232,42.426 46.572,44.816 47.885,47.168 47.889,47.186 47.893,47.201 47.836,47.265 47.607,47.496 44.982,50.142 41.734,52.068 38.145,53.108 37.325,53.344 35.965,53.676 34.517,53.849 31.737,54.179 28.948,53.968 26.238,53.222 L 26.037,53.158 25.783,22.633 C 25.93,19.919 25.799,17.092 28.036,16.341 Z"/>
 <path style="fill:#ffffff;opacity:0.2" d="M 32.77 10.014 C 30.978 9.9528 29.177 10.111 27.436 10.484 C 26.689 10.643 25.844 10.87 25.125 11.105 C 20.629 12.578 16.753 15.448 14.018 19.33 C 13.008 20.763 12.156 22.347 11.518 23.975 C 10.457 26.679 9.963 29.537 10.018 32.398 C 10.085 29.873 10.581 27.364 11.518 24.975 C 12.156 23.347 13.008 21.763 14.018 20.33 C 16.753 16.448 20.629 13.578 25.125 12.105 C 25.844 11.87 26.689 11.643 27.436 11.484 C 29.758 10.986 32.185 10.869 34.555 11.146 C 37.995 11.548 41.326 12.777 44.217 14.709 C 47.075 16.618 49.422 19.135 51.113 22.102 C 51.761 23.238 52.314 24.45 52.756 25.707 C 53.064 26.587 53.344 27.606 53.537 28.531 C 53.786 29.725 53.932 30.928 53.98 32.129 C 53.989 30.596 53.855 29.057 53.537 27.531 C 53.344 26.606 53.064 25.587 52.756 24.707 C 52.314 23.45 51.761 22.238 51.113 21.102 C 49.422 18.135 47.075 15.618 44.217 13.709 C 41.326 11.777 37.995 10.548 34.555 10.146 C 33.962 10.077 33.367 10.034 32.77 10.014 z M 28.633 16.336 C 28.443 16.318 28.243 16.32 28.035 16.342 C 25.798 17.093 25.93 19.919 25.783 22.633 L 25.791 23.488 C 25.926 20.82 25.838 18.079 28.035 17.342 C 29.699 17.169 30.767 18.343 31.676 19.58 C 35.983 27.036 40.573 35.113 45.232 43.426 C 46.396 45.502 47.256 47.047 47.539 47.561 C 47.561 47.538 47.585 47.518 47.607 47.496 C 47.836 47.265 47.893 47.201 47.889 47.186 C 47.885 47.168 46.572 44.816 45.232 42.426 C 40.573 34.113 35.983 26.036 31.676 18.58 C 30.88 17.498 29.964 16.462 28.633 16.336 z"/>
</svg>
